X: 20897
T: Josefin's
R: waltz
M: 3/4
K: Gmajor
M:3/4
V:1
"G"D2 G2 A2|"Gmaj7"B2 d2 c2|"Em7"B2 A2 G2|"Bm7"D4 E2|"Cmaj7"C4 CC|"Am7"E2 G2 F2|"D7"E6|D6|
"G"D2 G2 A2|"Gmaj7"B2 d2 c2|"Em7"B2 A2 G2|"Bm"D4 E2|"Am7"C4 CC|"Bm7"D2 F2 G2|1 "D"A6-|A6:|2 A6-|A2 B2 c2||
|:"G"d2 B2 d2|"Em"g4 f2|"Am7"e6|"Bm"d6|"C"c2 e2 d2|"Am7"c2 B2 A2|"Em7"B3 c B2|"D"A2 B2 c2|"Bm"d2 B2 d2|
"Em7"g4 f2|"C"e6|"D"d6|"Am7"c2 e2 d2|"D7"c2 B2 A2|"Am9"B3 c B2|"D7"A2 B2 c2|"Em7"B2 A2 G2|"Bm"F4 G2|
"C"G6|C2 D2 C2|"G"B,2 D2 G2|"D"F2 E2 F2||1 "G9sus4"G6|"D"A2 B2 c2:|2 "G"G6-|G6||
V:2
B,2 D2 F2|G2 F2 A2|G2 F2 E2|B,2 G,4|E2 G2 B2|c2 A2 d2|c2 A2 G2-|G2 F2 D2|
G,4 G2-|G2 F2 A2|G4 E2|B,6|A,2 G2 E2|B,2 D2 E2|1 F4 D2|D2 C2 A,2:|2 F2 G2 F2|D2 G2 A2||
|:B2 G2 F2|E2 B,2 D2|C2 A4|F4 B,2|E2 C2 B,2|A,2 G2 F2|G2 E4|F2 G2 A2|B2 D2 B,2|
E2 D4|C2 G4|F2 A2 cB|A2 G2 F2|E2 D2 C2|D2 E2 G2|F2 G2 A2|G3 F E2|D2 B,4|
CE GA Bc|ec AF GE|D2 GA B2|A2 c4-|1 c2 D2 E2|F2 G2 A2:|2 c2 B2 c2|[D6G,6B6]||

